svg/comments.svg

<svg xmlns="http://www.w3.org/2000/svg" viewBox="0 0 32 32" enable-background="new 0 0 32 32"><path d="M 3 6 L 3 7 L 3 25 L 3 26 L 4 26 L 12.5625 26 L 15.28125 28.71875 L 16 29.40625 L 16.71875 28.71875 L 19.4375 26 L 28 26 L 29 26 L 29 25 L 29 7 L 29 6 L 28 6 L 4 6 L 3 6 z M 5 8 L 27 8 L 27 24 L 19 24 L 18.59375 24 L 18.28125 24.28125 L 16 26.5625 L 13.71875 24.28125 L 13.40625 24 L 13 24 L 5 24 L 5 8 z M 9 11 L 9 13 L 23 13 L 23 11 L 9 11 z M 9 15 L 9 17 L 23 17 L 23 15 L 9 15 z M 9 19 L 9 21 L 19 21 L 19 19 L 9 19 z" color="#000" overflow="visible" enable-background="accumulate"/></svg>

<svg xmlns="http://www.w3.org/2000/svg" viewBox="0 0 32 32"><path style="text-indent:0;text-align:start;line-height:normal;text-transform:none;block-progression:tb;-inkscape-font-specification:Bitstream Vera Sans" d="M3 6v20h9.563l2.718 2.72.72.686.72-.687L19.437 26H29V6H3zm2 2h22v16h-8.406l-.313.28L16 26.563l-2.28-2.28-.314-.282H5V8zm4 3v2h14v-2H9zm0 4v2h14v-2H9zm0 4v2h10v-2H9z" color="#000" overflow="visible" font-family="Bitstream Vera Sans"/></svg>
